X: 1335
T: An Peata Sa Chistineach
R: jig
M: 6/8
K: Amajor
|:cee dff|cee ecA|c3 fga|ecA B2B|
Ace fga|ecA BAF|EAA GBB|cAG A2B:|

